X: 1
T: The Bridal Jig
O: Trad
Z: John Chambers <jc:trillian.mit.edu>
B: Cole p.58
R: jig
M: 6/8
L: 1/8
K: G
"A"|: "G"G2G BGB | "D7"def "G"gfg | "C"ecA "G"dBG | "D7"FAG FED | "G"G2G BGB |
| "D7"def "G"gfg | "C"ecA "G"dBG | "D7"cAF "G"G3 "B":: "Em"Bee edB | "D"def "Em"g2a |
| bag "D"agf | "Em"e2e edB | "Em"Bee edB | "D"def "Em"g2a | bag "D"agf | "Em"e6 :|
